outputs/icons/general/review_round.svg

<svg xmlns="http://www.w3.org/2000/svg" width="1200" height="1200" fill="none"><path fill="#000" d="M1000 100H200c-55 0-99.5 45-99.5 100l-.483 869.8c-.006 11.14 13.461 16.72 21.338 8.845L300 900h700c55 0 100-45 100-100V200c0-55-45-100-100-100m0 700H258.5L229 829.5l-29 29V200h800zM525 700h325c27.615 0 50-22.385 50-50s-22.385-50-50-50H625zm193-293.5c10-10 10-25.5 0-35.5l-88.5-88.5c-10-10-25.5-10-35.5 0L303.661 572.84a12.5 12.5 0 0 0-3.661 8.84V687.5c0 6.905 5.596 12.5 12.5 12.5h105.835c3.307 0 6.48-1.31 8.824-3.645z"/></svg>

<svg width="1200" height="1200" viewBox="0 0 1200 1200" fill="none" xmlns="http://www.w3.org/2000/svg"><path d="M1000 100H200C145 100 100.5 145 100.5 200L100.017 1069.8C100.011 1080.94 113.478 1086.52 121.355 1078.645L300 900H1000C1055 900 1100 855 1100 800V200C1100 145 1055 100 1000 100ZM1000 800H258.5L229 829.5L200 858.5V200H1000V800ZM525 700H850C877.615 700 900 677.615 900 650C900 622.385 877.615 600 850 600H625L525 700ZM718 406.5C728 396.5 728 381 718 371L629.5 282.5C619.5 272.5 604 272.5 594 282.5L303.661 572.84C301.317 575.185 300 578.36 300 581.68V687.5C300 694.405 305.596 700 312.5 700H418.335C421.642 700 424.815 698.69 427.159 696.355L718 406.5Z" fill="#1D1E23"/></svg>
